source/img/sprite/stars-5.svg

<svg width="84" height="16" viewBox="0 0 84 16" fill="none" xmlns="http://www.w3.org/2000/svg">
<path d="M7.63441 11.6911L12.3525 14.3L11.1042 9.37971L15.2688 6.0708L9.77893 5.63889L7.63441 1L5.48992 5.63889L0 6.0708L4.16458 9.37971L2.91634 14.3L7.63441 11.6911Z" fill="white"/>
<path d="M24.6344 11.6911L29.3525 14.3L28.1042 9.37971L32.2688 6.0708L26.7789 5.63889L24.6344 1L22.4899 5.63889L17 6.0708L21.1646 9.37971L19.9163 14.3L24.6344 11.6911Z" fill="white"/>
<path d="M41.6344 11.6911L46.3525 14.3L45.1042 9.37971L49.2688 6.0708L43.7789 5.63889L41.6344 1L39.4899 5.63889L34 6.0708L38.1646 9.37971L36.9163 14.3L41.6344 11.6911Z" fill="white"/>
<path d="M58.6344 11.6911L63.3525 14.3L62.1042 9.37971L66.2688 6.0708L60.7789 5.63889L58.6344 1L56.4899 5.63889L51 6.0708L55.1646 9.37971L53.9163 14.3L58.6344 11.6911Z" fill="white"/>
<path d="M75.6344 11.6911L80.3525 14.3L79.1042 9.37971L83.2688 6.0708L77.7789 5.63889L75.6344 1L73.4899 5.63889L68 6.0708L72.1646 9.37971L70.9163 14.3L75.6344 11.6911Z" fill="white"/>
</svg>

<svg viewBox="0 0 84 16" fill="none" xmlns="http://www.w3.org/2000/svg"><path d="m7.63 11.7 4.72 2.6-1.25-4.92 4.17-3.3-5.5-.44-2.14-4.64-2.14 4.64-5.49.43 4.16 3.31-1.24 4.92 4.71-2.6Zm17 0 4.72 2.6-1.25-4.92 4.17-3.3-5.5-.44-2.14-4.64-2.14 4.64-5.49.43 4.16 3.31-1.24 4.92 4.71-2.6Zm17 0 4.72 2.6-1.25-4.92 4.17-3.3-5.5-.44-2.14-4.64-2.14 4.64-5.49.43 4.16 3.31-1.24 4.92 4.71-2.6Zm17 0 4.72 2.6-1.25-4.92 4.17-3.3-5.5-.44-2.14-4.64-2.14 4.64-5.49.43 4.16 3.31-1.24 4.92 4.71-2.6Zm17 0 4.72 2.6-1.25-4.92 4.17-3.3-5.5-.44-2.14-4.64-2.14 4.64-5.49.43 4.16 3.31-1.24 4.92 4.71-2.6Z" fill="#fff"/></svg>
